usr/share/icons/biglinux-icons-material/scalable/apps/web-facebook.svg

<svg xmlns="http://www.w3.org/2000/svg" xml:space="preserve" width="24" height="24" viewBox="0 0 6.35 6.35"><defs><linearGradient id="a" x1="12" x2="12" y1="1" y2="23" gradientTransform="matrix(.75 0 0 .75 0 0)" gradientUnits="userSpaceOnUse" spreadMethod="pad"><stop offset="0" style="stop-opacity:1;stop-color:#4a74d2"/><stop offset="1" style="stop-opacity:1;stop-color:#375295"/></linearGradient></defs><path d="M7.195.836c.09 0 .176-.012.258-.035a23.86 23.86 0 0 1 3.231.008 10.26 10.26 0 0 1 2.836.636c1.519.625 2.558 1.711 3.121 3.254.316.93.507 1.887.566 2.867a21.227 21.227 0 0 1-.086 3.696 8.976 8.976 0 0 1-.672 2.488c-.637 1.383-1.672 2.336-3.101 2.859a11.693 11.693 0 0 1-3.575.618 15.998 15.998 0 0 1-4.089-.309c-2.481-.551-4.016-2.066-4.594-4.543a14.244 14.244 0 0 1-.336-3.383c-.027-1.215.101-2.41.387-3.59.609-2.312 2.078-3.746 4.406-4.3A10.27 10.27 0 0 1 7.195.836Z" style="fill:url(#a);fill-rule:evenodd;stroke:none" transform="scale(.35277)"/><path d="M6.211 7.75h1.195v-.797c0-.621.09-1.047.235-1.355.148-.305.421-.551.816-.743.398-.191.902-.293 1.508-.293.617 0 1.269.161 1.824.399l-.398 1.195a3.934 3.934 0 0 0-.899-.094c-.316 0-.543.071-.683.204-.137.129-.411.312-.411.691v.797h1.993v1.195H9.398v5.973H7.422l-.016-5.973H6.211" style="fill:none;stroke:#000;stroke-width:.375;stroke-linecap:round;stroke-linejoin:round;stroke-miterlimit:4;stroke-dasharray:none;stroke-opacity:.0782866" transform="scale(.35277)"/><path d="M6.211 7.75h1.195v-.797c0-.621.09-1.047.235-1.355.148-.305.421-.551.816-.743.398-.191.902-.293 1.508-.293.617 0 1.269.161 1.824.399l-.398 1.195a3.934 3.934 0 0 0-.899-.094c-.316 0-.543.071-.683.204-.137.129-.411.312-.411.691v.797h1.993v1.195H9.398v5.973H7.422l-.016-5.973H6.211" style="fill:#f9f9f9;fill-opacity:1;fill-rule:nonzero;stroke:none" transform="scale(.35277)"/></svg>

<?xml version="1.0" encoding="UTF-8" standalone="no"?>
<svg
   width="24"
   height="24"
   viewBox="0 0 6.349875 6.349875"
   version="1.1"
   id="svg7914"
   sodipodi:docname="web-facebook.svg"
   inkscape:export-filename="web-facebook.pdf"
   inkscape:export-xdpi="300"
   inkscape:export-ydpi="300"
   inkscape:version="1.2.2 (b0a8486541, 2022-12-01)"
   xml:space="preserve"
   xmlns:inkscape="http://www.inkscape.org/namespaces/inkscape"
   xmlns:sodipodi="http://sodipodi.sourceforge.net/DTD/sodipodi-0.dtd"
   xmlns="http://www.w3.org/2000/svg"
   xmlns:svg="http://www.w3.org/2000/svg"><defs
     id="defs7918"><linearGradient
       id="paint0_linear_18_187"
       x1="12"
       y1="1"
       x2="12"
       y2="23"
       gradientUnits="userSpaceOnUse"
       gradientTransform="matrix(0.26457812,0,0,0.26457812,-2.8164292e-6,-8.8e-6)"><stop
         stop-color="#33BEF0"
         id="stop8303"
         offset="0"
         style="stop-color:#4a74d2;stop-opacity:1;" /><stop
         offset="1"
         stop-color="#0A85D9"
         id="stop8305"
         style="stop-color:#375295;stop-opacity:1;" /></linearGradient><linearGradient
       x1="12"
       y1="1"
       x2="12"
       y2="23"
       gradientUnits="userSpaceOnUse"
       gradientTransform="matrix(0.75,0,0,0.75,-7.98374e-6,-2.49454e-5)"
       spreadMethod="pad"
       id="linearGradient38255"><stop
         style="stop-opacity:1;stop-color:#4a74d2"
         offset="0"
         id="stop38251" /><stop
         style="stop-opacity:1;stop-color:#375295"
         offset="1"
         id="stop38253" /></linearGradient><linearGradient
       x1="12"
       y1="1"
       x2="12"
       y2="23"
       gradientUnits="userSpaceOnUse"
       gradientTransform="matrix(0.75,0,0,0.75,-7.98374e-6,-2.49454e-5)"
       spreadMethod="pad"
       id="linearGradient38255-1"><stop
         style="stop-opacity:1;stop-color:#4a74d2"
         offset="0"
         id="stop38251-9" /><stop
         style="stop-opacity:1;stop-color:#375295"
         offset="1"
         id="stop38253-4" /></linearGradient></defs><sodipodi:namedview
     id="namedview7916"
     pagecolor="#ffffff"
     bordercolor="#000000"
     borderopacity="0.25"
     inkscape:showpageshadow="2"
     inkscape:pageopacity="0.0"
     inkscape:pagecheckerboard="0"
     inkscape:deskcolor="#d1d1d1"
     showgrid="false"
     inkscape:zoom="20.704688"
     inkscape:cx="-8.9593236"
     inkscape:cy="17.218323"
     inkscape:window-width="2560"
     inkscape:window-height="1000"
     inkscape:window-x="1680"
     inkscape:window-y="0"
     inkscape:window-maximized="1"
     inkscape:current-layer="svg7914" /><g
     id="g38239"
     transform="matrix(0.35277082,0,0,0.35277082,-1.1961624e-4,-9.2306512e-6)"><g
       id="g38241"><g
         id="g38243"><g
           id="g38249"><path
             d="m 7.195,0.836 c 0.09,0 0.176,-0.012 0.258,-0.035 1.078,-0.071 2.156,-0.067 3.231,0.008 0.976,0.078 1.921,0.289 2.836,0.636 1.519,0.625 2.558,1.711 3.121,3.254 0.316,0.93 0.507,1.887 0.566,2.867 0.078,1.235 0.051,2.465 -0.086,3.696 -0.105,0.863 -0.328,1.691 -0.672,2.488 -0.637,1.383 -1.672,2.336 -3.101,2.859 C 12.191,17 11,17.207 9.773,17.227 8.398,17.301 7.035,17.195 5.684,16.918 3.203,16.367 1.668,14.852 1.09,12.375 0.844,11.262 0.73,10.133 0.754,8.992 0.727,7.777 0.855,6.582 1.141,5.402 1.75,3.09 3.219,1.656 5.547,1.102 6.09,0.969 6.641,0.879 7.195,0.836 Z"
             style="fill:url(#linearGradient38255-1);fill-rule:evenodd;stroke:none"
             id="path38257" /></g></g></g><g
       id="g38259"><path
         d="M 6.211,7.75 H 7.406 V 6.953 C 7.406,6.332 7.496,5.906 7.641,5.598 7.789,5.293 8.062,5.047 8.457,4.855 8.855,4.664 9.359,4.562 9.965,4.562 c 0.617,0 1.269,0.161 1.824,0.399 L 11.391,6.156 C 11.098,6.09 10.793,6.059 10.492,6.062 10.176,6.062 9.949,6.133 9.809,6.266 9.672,6.395 9.398,6.578 9.398,6.957 v 0.797 h 1.993 V 8.949 H 9.398 v 5.973 H 7.422 L 7.406,8.949 H 6.211"
         style="fill:none;stroke:#000000;stroke-width:0.375;stroke-linecap:round;stroke-linejoin:round;stroke-miterlimit:4;stroke-dasharray:none;stroke-opacity:0.0782866"
         id="path38261" /></g><path
       d="M 6.211,7.75 H 7.406 V 6.953 C 7.406,6.332 7.496,5.906 7.641,5.598 7.789,5.293 8.062,5.047 8.457,4.855 8.855,4.664 9.359,4.562 9.965,4.562 c 0.617,0 1.269,0.161 1.824,0.399 L 11.391,6.156 C 11.098,6.09 10.793,6.059 10.492,6.062 10.176,6.062 9.949,6.133 9.809,6.266 9.672,6.395 9.398,6.578 9.398,6.957 v 0.797 h 1.993 V 8.949 H 9.398 v 5.973 H 7.422 L 7.406,8.949 H 6.211"
       style="fill:#f9f9f9;fill-opacity:1;fill-rule:nonzero;stroke:none"
       id="path38263" /></g></svg>
